X:1
T:Wait
T:Wait
T:George Coles Stebbins
T:Mercy A. Gladwin, 1918
T:Public Domain Courtesy of the Cyber Hymnal™
C:George Coles Stebbins
Z:Public Domain
Z:Courtesy of the Cyber Hymnal™
%%score ( 1 2 ) ( 3 4 )
L:1/8
Q:1/4=88
M:4/4
K:Ab
V:1 treble 
V:2 treble 
V:3 bass 
V:4 bass 
V:1
 [CE]2 (3[=B,=D][CE][_DF] [CE]4 | [DF]2 (3[DG][CA][DB] [CA]4 | [EB]2 [EB][Ec] [Ed]3 [Ec] | %3
w: 1.~Wait! pa- tient- ly wait,|God ne- ver is late:|Thy bud- ding plans are|
w: 2.~Trust! hope- ful- ly trust!|That God will ad- just|Thy tan- gled life: And|
w: 3.~Rest! peace- ful- ly rest!|On His lov- ing breast:|Breathe in His ear Thy|
 [EB][EG][EA][EB] [Ec]2 [CA]2 | [Ec]2 [Ec][Ed] [Ae]3 [Ec] | [EB][EA][=DG][DA] [Ec]2 [EB][=Ec] | %6
w: in Thy Fa- ther’s hold- ing,|And on- ly wait His|grand di- vine un- fold- ing; Then|
w: from its dark con- ceal- ings|Will bring His will in|all its bright re- veal- ings; Then|
w: sac- red, high am- bi- tion|And He will bring it|forth in blest fru- i- tion. Then|
 A4 [FA]4 |"^riten." E2 [DE][DE] [CE]4 |] %8
w: wait, wait,|pa- tient- ly wait.|
w: trust, trust,|hope- ful- ly trust.|
w: rest, rest,|peace- ful- ly rest!|
V:2
 x8 | x8 | x8 | x8 | x8 | x8 | (F2 _G2) x4 | E2 x6 |] %8
V:3
 [A,,A,]2 (3[A,,A,][A,,A,][A,,A,] [A,,A,]4 | [D,A,]2 (3[B,,B,][E,A,][E,G,] [A,,A,]4 | %2
 [E,G,]2 [E,G,][E,A,] [E,B,]3 [E,A,] | [E,G,][D,B,][C,A,][E,G,] A,2 [A,,A,]2 | %4
 A,2 A,[A,B,] [A,C]3 A, | [G,B,][F,B,][B,,B,][B,,B,] [E,A,]2 [E,G,][C,C] | C4 (B,2 A,2) | %7
 [C,A,]2 [B,,G,][B,,G,] [A,,A,]4 |] %8
V:4
 x8 | x8 | x8 | x4 A,2 x2 | A,2 A, x3 A, x | x8 | (F,2 E,2) D,4 | x8 |] %8

